X: 20671
T: John Walsh's
R: polka
M: 2/4
K: Gmajor
G>A BA|GE ED|B,D ED|B,D ED|
G>A BA|GE ED|B,D ED|1 GD ED:|2 GA Bd||
g>g fg|af g/f/e|dB BA|GA Bd|
g>g fg|af g/f/e|dB AB|1 GA Bd:|2 G2 G2||

